X:14
T:CLYDE-SIDE LASSIES, -- REEL.
R:reel
C:SCOTCH.
B:Coles
Z:John Walsh <walsh:mat:h.ubc.ca>
Z:There's a sign at: the end of each part which I'm interpreting as a coda sign
M:C|
L:1/8
K:F
uAFcF dFcF|AFcF GABG|AFcF dFcF|BAGA BdcB|\
AFcF dFcF|AFcF GABG|AFcF dFcF|BAGA (Bc)de"^<coda>"|]
vfgag f2 (cf)|g^fga baga|=fgag f2 (Ac)|BAGA Bcde|\
fgag f2 (cf)|g^fga bagb|afge fdec|dBcA (BA)GB"_D.C.""^<coda>"|| [f3A3] z
H|]
